X: 158
M:6/8
L:1/8
Q:160
K:C
|: d|e3 e>dc|d3 d2 d| B>cd d>cB|A3 d2 B| c>dc B2 F| A>Bc B2 F|A2G ^F>EF|G3 G3:|

